packages/icons/src/SVG/pause.svg

<svg width="12" height="12" viewBox="0 0 12 12" fill="none" xmlns="http://www.w3.org/2000/svg">
<path d="M2 0H5.00293V12H2V0ZM2.99707 1V11H3.99413V1H2.99707ZM6.99707 0H10V12H6.99707V0ZM8.00587 1V11H9.00293V1H8.00587Z" fill="#4C505B"/>
</svg>

<!-- Generated by IcoMoon.io -->
<svg version="1.1" xmlns="http://www.w3.org/2000/svg" width="12" height="12" viewBox="0 0 12 12">
<title>pause</title>
<path d="M2 0h3.003v12h-3.003v-12zM2.997 1v10h0.997v-10h-0.997zM6.997 0h3.003v12h-3.003v-12zM8.006 1v10h0.997v-10h-0.997z"></path>
</svg>
